icons/svg/movie.svg

<svg width="24" height="24" viewBox="0 0 24 24" fill="none" xmlns="http://www.w3.org/2000/svg">
<path d="M2.75 7.5C2.75 5.84315 4.09315 4.5 5.75 4.5H18.25C19.9069 4.5 21.25 5.84315 21.25 7.5V16.5C21.25 18.1569 19.9069 19.5 18.25 19.5H5.75C4.09315 19.5 2.75 18.1569 2.75 16.5V7.5Z" stroke="currentColor" stroke-width="1.5" stroke-linecap="round" stroke-linejoin="round"/>
<path d="M7 5V19" stroke="currentColor" stroke-width="1.5" stroke-linecap="round" stroke-linejoin="round"/>
<path d="M17 5V19" stroke="currentColor" stroke-width="1.5" stroke-linecap="round" stroke-linejoin="round"/>
<path d="M2.75 9.5L7 9.5" stroke="currentColor" stroke-width="1.5" stroke-linecap="round" stroke-linejoin="round"/>
<path d="M2.75 14.5L7 14.5" stroke="currentColor" stroke-width="1.5" stroke-linecap="round" stroke-linejoin="round"/>
<path d="M17 9.5L21.25 9.5" stroke="currentColor" stroke-width="1.5" stroke-linecap="round" stroke-linejoin="round"/>
<path d="M17 14.5L21.25 14.5" stroke="currentColor" stroke-width="1.5" stroke-linecap="round" stroke-linejoin="round"/>
</svg>

<svg xmlns="http://www.w3.org/2000/svg" width="24" height="24" fill="none" viewBox="0 0 24 24"><path stroke="currentColor" stroke-linecap="round" stroke-linejoin="round" stroke-width="1.5" d="M2.75 7.5a3 3 0 0 1 3-3h12.5a3 3 0 0 1 3 3v9a3 3 0 0 1-3 3H5.75a3 3 0 0 1-3-3zM7 5v14M17 5v14M2.75 9.5H7m-4.25 5H7m10-5h4.25m-4.25 5h4.25"/></svg>
